src/actions/24/snap-bounding-box-midpoints.svg

<svg xmlns="http://www.w3.org/2000/svg" viewBox="0 0 24 24">
    <path d="M4 4v3h1v1h1V7h1V6h1V5H7V4H4zm13 0v1h-1v1h1v1h1v1h1V7h1V4h-3zM5 5h1v1H5V5zm5 0v1h1V5h-1zm3 0v1h1V5h-1zm5 0h1v1h-1V5zM5 10v1h1v-1H5zm0 3v1h1v-1H5zm0 3v1H4v3h3v-1h1v-1H7v-1H6v-1H5zm13 0v1h-1v1h-1v1h1v1h3v-3h-1v-1h-1zM5 18h1v1H5v-1zm5 0v1h1v-1h-1zm3 0v1h1v-1h-1zm5 0h1v1h-1v-1z" style="fill:currentColor;fill-opacity:1;stroke:none;color:#050505;opacity:.7"/>
    <path d="M16 10v4h4v-4h-4zm1 1h2v2h-2v-2z" style="fill:currentColor;fill-opacity:1;stroke:none;color:#a0b6cb"/>
</svg>

<svg xmlns="http://www.w3.org/2000/svg" viewBox="0 0 24 24">
  <defs id="defs3051">
    <style type="text/css" id="current-color-scheme">
      .ColorScheme-Text {
        color:#363636;
      }
      .ColorScheme-Highlight {
        color:#a0b6cb;
      }
      </style>
  </defs>
 <path 
     style="fill:currentColor;fill-opacity:1;stroke:none" 
     d="M 4 4 L 4 7 L 5 7 L 5 8 L 6 8 L 6 7 L 7 7 L 7 6 L 8 6 L 8 5 L 7 5 L 7 4 L 4 4 z M 17 4 L 17 5 L 16 5 L 16 6 L 17 6 L 17 7 L 18 7 L 18 8 L 19 8 L 19 7 L 20 7 L 20 4 L 17 4 z M 5 5 L 6 5 L 6 6 L 5 6 L 5 5 z M 10 5 L 10 6 L 11 6 L 11 5 L 10 5 z M 13 5 L 13 6 L 14 6 L 14 5 L 13 5 z M 18 5 L 19 5 L 19 6 L 18 6 L 18 5 z M 5 10 L 5 11 L 6 11 L 6 10 L 5 10 z M 5 13 L 5 14 L 6 14 L 6 13 L 5 13 z M 5 16 L 5 17 L 4 17 L 4 20 L 7 20 L 7 19 L 8 19 L 8 18 L 7 18 L 7 17 L 6 17 L 6 16 L 5 16 z M 18 16 L 18 17 L 17 17 L 17 18 L 16 18 L 16 19 L 17 19 L 17 20 L 20 20 L 20 17 L 19 17 L 19 16 L 18 16 z M 5 18 L 6 18 L 6 19 L 5 19 L 5 18 z M 10 18 L 10 19 L 11 19 L 11 18 L 10 18 z M 13 18 L 13 19 L 14 19 L 14 18 L 13 18 z M 18 18 L 19 18 L 19 19 L 18 19 L 18 18 z "
     class="ColorScheme-Text"
     />
 <path 
     style="fill:currentColor;fill-opacity:1;stroke:none" 
     d="M 16 10 L 16 14 L 20 14 L 20 10 L 16 10 z M 17 11 L 19 11 L 19 13 L 17 13 L 17 11 z "
     class="ColorScheme-Highlight"
     />
</svg>
